icons/walker.svg

<svg width="24" height="24" viewBox="0 0 24 24" fill="none" xmlns="http://www.w3.org/2000/svg">
<path fill-rule="evenodd" clip-rule="evenodd" d="M15.7325 2C18.3767 2 19 4 19 4.99847V16.148C20.3396 16.792 21.0062 17.7427 20.9997 19C20.9898 20.886 19.4128 22.0124 18.0068 22.0124C16.6009 22.0124 15 20.8992 15 19C15 17.7339 15.6665 16.7832 16.9996 16.148L17 11H7.15397L5.03573 20.9987C5.01164 21.6745 4.66955 22.0124 4.00945 22.0124C3.34934 22.0124 3.01286 21.6745 3 20.9987L6.53697 4.2C7.03477 2.73333 8.08957 2 9.70138 2H15.7325ZM18 18C17.4477 18 17 18.4477 17 19C17 19.5523 17.4477 20 18 20C18.5523 20 19 19.5523 19 19C19 18.4477 18.5523 18 18 18ZM16.9996 8H7.77067L7.56741 8.99787H16.9996V8ZM16.0022 4H9.82936C8.90558 4 8.57144 4.2 8.42018 5C8.42018 5 8.34511 5.33333 8.19496 6H16.9996L17 5C16.9997 4.4085 16.6671 4.07517 16.0022 4Z" fill="#3A3A47"/>
</svg>

<svg xmlns="http://www.w3.org/2000/svg" width="24" height="24" viewBox="0 0 24 24">
    <path fill="#3A3A47" fill-rule="evenodd" d="M15.732 2C18.377 2 19 4 19 4.998v11.15c1.34.644 2.006 1.595 2 2.852-.01 1.886-1.587 3.012-2.993 3.012S15 20.9 15 19c0-1.266.667-2.217 2-2.852V11H7.154l-2.118 9.999c-.024.676-.366 1.013-1.027 1.013-.66 0-.996-.337-1.009-1.013L6.537 4.2C7.035 2.733 8.09 2 9.701 2h6.031zM18 18a1 1 0 1 0 0 2 1 1 0 0 0 0-2zM17 8H7.77l-.203.998H17V8zm-.998-4H9.83c-.923 0-1.258.2-1.409 1l-.225 1H17V5c0-.591-.333-.925-.998-1z"/>
</svg>
